X: 34
T: The Hut on Staffin Island
C:Phil Cunningham
N:What You hear is not what You see; what You hear is decisive
M:C
L:1/8
K:D
|:A,B,DE D3 E| FEFA d2 cA| B3 d BAFD| E2 FE DB,B,D|
A,B,DE D3 E| FE (3FGA dDcD| B3 d BAFD|1 E2 FE D3 B,:|2 E2 FE D2 FA|
|| d3 d d2 ed| cBcd c2 BA| B3 B B2 dB| AFED DB, B,2|
d3 d d2 ed| cBcd c2 BA| B2 GA BcdB| AFEF DD D2|
d3 d d2 ed| cBcd c2 BA| B2 GA B2 dB| AFEF DB,B, D|
A,B,DE D3 E| FE (3FGA d2 cA| B3 d BAFD| E2 FE D4 ||

%%sep 2 1 500

